icons/line-chart-line.svg

<svg width="24" height="24" fill="none" xmlns="http://www.w3.org/2000/svg"><g clip-path="url(#a)"><path d="M5 3v16h16v2H3V3h2Zm15.293 3.293 1.414 1.414L16 13.414l-3-2.999-4.293 4.292-1.414-1.414L13 7.586l3 2.999 4.293-4.292Z" /></g><defs><clipPath id="a"><path fill="#fff" d="M0 0h24v24H0z"/></clipPath></defs></svg>

<svg xmlns="http://www.w3.org/2000/svg" width="24" height="24" fill="none"><g clip-path="url(#a)"><g><path fill="#121212" d="M5 3V19H21V21H3V3H5ZM20.293 6.293L21.707 7.707L16 13.414L13 10.415L8.707 14.707L7.293 13.293L13 7.586L16 10.585L20.293 6.293Z"/></g></g><defs><clipPath id="a"><rect width="24" height="24" fill="white"/></clipPath></defs></svg>
